X:410
T:Planxty Fanny Powers (with harmony)
C:Turlough O'Carolan
M:3/4
L:1/4
K:G
%
V:1
%
D|:"G"G2D |G>AB|"C"c2B|A2G|"D"F2E|D>ED|F2G|A2c|"G"B>AG|
B>cd|"C"e2A|A2G|"D"F>ED|DGF|"G"G3|[1 G2D:|[2 G2B|
|:"G"dB/c/d|dB/c/d|G>AG|GBd|"C"ec/d/e|ec/d/e|"Am"A>BA|ABc|
"G"B>cd|"Em"efg|"D"fga|"C"d2c|"Em"B>AG|"D"B2A|"G"G3|[1 G2B:|[2 G3||
%
V:2
%
D|:G3|d3|G3|E3/2F/G|F3|A3|d3-|d2c|B3-|
B3|c2 e|e3|d2A|d2c|B2 A|1G3:|2G3||
|:d3|g2f|e2 d|dcB|c2B|ceg|f2 d|d2 c|
B3|c3| c3/2B/A|d2 F|G3|G2F|G2 D|[1G2D:|[2G,3||

